X:1
T:J Lang
M:4/4
R:Reel
C:A Harper jnr
K:G
G2Bd eAde|BdeB d2 Bd|e2 ed egge|d2 de BAAB|G2 Bd eBde|BdeB d2Bd|e2 ed egge|
d2dB AGG2:|:Ggge d2 Bd|BAABd2 Bd|e2 ed egge| d2de BAAB|1Ggged2Bd|BAABd2Bd|
e2ed egge|d2dB AGG2:|2GBd eBde|BdeB d2 Bd|e2ed egge|d2 dB AG G2||
